X:1
T:Follow Thou Me
T:Follow Thou Me
T:John Henry Kurzenknabe, 1882
T:Ida Ronyon Finlay, 1871, alt.
T:Public Domain Courtesy of the Cyber Hymnal™
T:Public Domain Courtesy of the Cyber Hymnal™
C:John Henry Kurzenknabe, 1882
Z:Public Domain
Z:Courtesy of the Cyber Hymnal™
%%score 1 2
L:1/8
Q:1/4=90
M:6/8
K:Ab
V:1 treble 
V:2 bass 
V:1
 [CE]/[CE]/ | [EA]>[EA][EA] ([Ec]>[Ec])[Ec] | [EA]3 [EA]2 ([EA]/[EA]/) | [GB]>[GB][GB] [Ac]2 [GB] | %4
w: 1.~Have ye|looked for the sheep~in * the|de- sert, For *|those who have lost their|
w: 2.~Have you|fo- ld- ed home~to * your|bo- som The *|trem- bling, ne- glect- ed|
w: 3.~Have ye|car- ried the liv- * ing|wa- ters To *|the parchèd and thirst- y|
w: 4.~Have ye|wept with the brok- * en|heart- ed In *|their a- go- ny of|
 [Ac]3- [Ac]2 ([CE]/[CE]/) | ([EA]>[EA])[EA] ([Ec]>[Ec])[Ec] | [EA]3 [EA]2 ([EA]/[EA]/) | %7
w: way? * Have~ye *|been~in * the wild~wast- * ed|plac- es, Where *|
w: lamb? * And *|taught * the lit- * tle|loved one The *|
w: soul? * Have~ye *|said~to * the sick~and * the|wound- ed, “Christ *|
w: woe? * Ye~might *|hear * Me whisper * be-|side you, ’Tis~a *|
 [FB]>[FB][FB] [EA]2 [EG] | [EA]3- [EA]2 [EA]/[EA]/ | [Ec]>[Ec][Ec] [EA]2 [EA] | %10
w: the~lost and the wan- dering|stray? * Have ye|trod- den the lone- ly|
w: sound of the Shep- herd’s|name? * Have ye|searched for the poor and|
w: J- e- sus makes thee|whole”? * Have ye|to- ld My faint- ing|
w: path- way I oft- en|go. * My dis-|ci- ples, My breth- ren,|
 [Fc]3 [Fc]2 ([Fc]/[Fc]/) | [Fd]>[Fd][Fd] [F=d]2 [Ad] | [Ge]3- [Ge]2 ([EG]/[DG]/) | %13
w: high- way, Or~the *|foul and the dark- some|street? * It~may *|
w: need- y, With~no *|cloth- ing, no home, no|bread? * The *|
w: child- ren, Of~the *|strength of My Fa- ther’s|hand? * Have~ye *|
w: My friends, Can~you *|da- re to fol- low|Me? * Then,~wher- *|
 ([CA]>[CA])[CA] [Ec]>[Ec][Ec] | [EA]3 [EA]2 ([EA]/[EA]/) | [FB]>[FB][FB] [EA]2 [EG] | %16
w: be~that * you’d see, in the|gloam- ing, The *|print of My wound- ed|
w: Son * of Man was a-|mong them, He~had *|no- where to lay His|
w: guided * the tot- ter- ing|foot- steps To~the *|shore of the “gold- en|
w: ever * the M- as- ter|dwell- eth, There *|sh- all the ser- vant|
 [EA]3- [EA]2 |] %17
w: feet. *|
w: head. *|
w: land”? *|
w: be. *|
V:2
 [A,,A,]/[A,,A,]/ | [A,,C]>[A,,C][A,,C] ([A,,E]>[A,,E])[A,,E] | [A,,C]3 [A,,C]2 ([A,C]/[A,C]/) | %3
 [E,E]>[E,E][E,E] [E,E]2 [E,E] | [A,,A,E]3- [A,,A,E]2 ([A,,A,]/[A,,A,]/) | %5
 ([A,,C]>[A,,C])[A,,C] ([A,,E]>[A,,E])[A,,E] | [A,,C]3 [A,,C]2 ([A,C]/[A,C]/) | %7
 [D,D]>[D,D][D,D] [E,C]2 [E,B,] | [A,,C]3- [A,,C]2 [A,,C]/[A,,C]/ | %9
 [A,,E]>[A,,E][A,,E] [A,C]2 [A,C] | [F,A,]3 [F,A,]2 ([F,A,]/[F,A,]/) | %11
 [D,A,]>[D,A,][D,A,] [B,,B,]2 [B,,B,] | [E,B,]3- [E,B,]2 ([E,B,]/[E,B,]/) | %13
 ([A,,A,]>[A,,A,])[A,,A,] [A,,A,]>[A,,A,][A,,A,] | [A,,C]3 [A,,C]2 ([A,C]/[A,C]/) | %15
 [D,D]>[D,D][D,D] [E,C]2 [E,B,] | [A,,A,C]3- [A,,A,C]2 |] %17

